X:6
T:Pure and Simple
C:Brandon Power
M:4/4
L:1/8
K:G
Q:1/4=180
|: gf ed e2 dB | A2 BA GA Bd | gf ed e2 dB | A2 BA G3 z :|
|: AB cd e2 dB | c2 BG A2 BG | AB cd e2 dB | c2 BG A2 G z :|

